X:1
T:Bloomington, LMD
T:Bloomington, LMD
T:Holland L. Boyd, 1918
T:Public Domain Courtesy of the Cyber Hymnal™
C:Holland L. Boyd, 1918
Z:Public Domain
Z:Courtesy of the Cyber Hymnal™
%%score ( 1 2 ) 3
L:1/8
Q:1/4=85
M:3/4
K:F
V:1 treble 
V:2 treble 
V:3 bass 
V:1
 CF G | A3 B AG | F3 F FF | F3 G FG | A3 C FG | A3 B AG | F3 G FD | C3 F !fermata!AG | %8
 F3 [DF] [DF][DF] | [DF]3 [DF] [DB][Fd] | [Fc]3 [FA] [FA][F^G] | [FA]3 [Fc] [Fc][FA] | %12
 [EG]3 C [CF][CG] | [FA]3 [FB] [FA][EG] | [DF]3 [DF] [Ff][Fd] | [Fc]3 F !fermata![FA][EG] | F3 |] %17
V:2
 x3 | x6 | x6 | x6 | x6 | x6 | x6 | x6 | x6 | x6 | x6 | x6 | x3 C x2 | x6 | x6 | x3 F x2 | F3 |] %17
V:3
 A,A, B, | C3 D CB, | A,3 A, DD | D3 ^C D_D | C3 A, A,B, | C3 D C^C | D3 ^C DB, | %7
 A,3 A, !fermata!CB, | A,3 [B,,B,] [B,,B,][B,,B,] | [B,,B,]3 [B,,B,] [B,,F,][B,,B,] | %10
 [F,A,]3 [F,C] [F,C][F,^B,] | [F,C]3 [F,A,] [F,A,][F,C] | [C,C]3 [F,A,] [F,A,][F,B,] | %13
 [F,C]3 [B,,D] [C,C][^C,B,] | [D,A,]3 [D,A,] [B,,D][D,B,] | [F,A,]3 [D,^B,] !fermata![C,C][C,B,] | %16
 [F,A,]3 |] %17

